src/images/sprite.svg

<svg aria-hidden="true" style="position: absolute; width: 0; height: 0; overflow: hidden;" version="1.1" xmlns="http://www.w3.org/2000/svg" xmlns:xlink="http://www.w3.org/1999/xlink">
<defs>
<symbol id="icon-facebook-square" viewBox="0 0 24 28">
<path d="M19.5 2c2.484 0 4.5 2.016 4.5 4.5v15c0 2.484-2.016 4.5-4.5 4.5h-2.938v-9.297h3.109l0.469-3.625h-3.578v-2.312c0-1.047 0.281-1.75 1.797-1.75l1.906-0.016v-3.234c-0.328-0.047-1.469-0.141-2.781-0.141-2.766 0-4.672 1.687-4.672 4.781v2.672h-3.125v3.625h3.125v9.297h-8.313c-2.484 0-4.5-2.016-4.5-4.5v-15c0-2.484 2.016-4.5 4.5-4.5h15z"></path>
</symbol>
<symbol id="icon-instagram" viewBox="0 0 32 32">
<path d="M16 2.881c4.275 0 4.781 0.019 6.462 0.094 1.563 0.069 2.406 0.331 2.969 0.55 0.744 0.288 1.281 0.638 1.837 1.194 0.563 0.563 0.906 1.094 1.2 1.838 0.219 0.563 0.481 1.412 0.55 2.969 0.075 1.688 0.094 2.194 0.094 6.463s-0.019 4.781-0.094 6.463c-0.069 1.563-0.331 2.406-0.55 2.969-0.288 0.744-0.637 1.281-1.194 1.837-0.563 0.563-1.094 0.906-1.837 1.2-0.563 0.219-1.413 0.481-2.969 0.55-1.688 0.075-2.194 0.094-6.463 0.094s-4.781-0.019-6.463-0.094c-1.563-0.069-2.406-0.331-2.969-0.55-0.744-0.288-1.281-0.637-1.838-1.194-0.563-0.563-0.906-1.094-1.2-1.837-0.219-0.563-0.481-1.413-0.55-2.969-0.075-1.688-0.094-2.194-0.094-6.463s0.019-4.781 0.094-6.463c0.069-1.563 0.331-2.406 0.55-2.969 0.288-0.744 0.638-1.281 1.194-1.838 0.563-0.563 1.094-0.906 1.838-1.2 0.563-0.219 1.412-0.481 2.969-0.55 1.681-0.075 2.188-0.094 6.463-0.094zM16 0c-4.344 0-4.887 0.019-6.594 0.094-1.7 0.075-2.869 0.35-3.881 0.744-1.056 0.412-1.95 0.956-2.837 1.85-0.894 0.888-1.438 1.781-1.85 2.831-0.394 1.019-0.669 2.181-0.744 3.881-0.075 1.713-0.094 2.256-0.094 6.6s0.019 4.887 0.094 6.594c0.075 1.7 0.35 2.869 0.744 3.881 0.413 1.056 0.956 1.95 1.85 2.837 0.887 0.887 1.781 1.438 2.831 1.844 1.019 0.394 2.181 0.669 3.881 0.744 1.706 0.075 2.25 0.094 6.594 0.094s4.888-0.019 6.594-0.094c1.7-0.075 2.869-0.35 3.881-0.744 1.050-0.406 1.944-0.956 2.831-1.844s1.438-1.781 1.844-2.831c0.394-1.019 0.669-2.181 0.744-3.881 0.075-1.706 0.094-2.25 0.094-6.594s-0.019-4.887-0.094-6.594c-0.075-1.7-0.35-2.869-0.744-3.881-0.394-1.063-0.938-1.956-1.831-2.844-0.887-0.887-1.781-1.438-2.831-1.844-1.019-0.394-2.181-0.669-3.881-0.744-1.712-0.081-2.256-0.1-6.6-0.1v0z"></path>
<path d="M16 7.781c-4.537 0-8.219 3.681-8.219 8.219s3.681 8.219 8.219 8.219 8.219-3.681 8.219-8.219c0-4.537-3.681-8.219-8.219-8.219zM16 21.331c-2.944 0-5.331-2.387-5.331-5.331s2.387-5.331 5.331-5.331c2.944 0 5.331 2.387 5.331 5.331s-2.387 5.331-5.331 5.331z"></path>
<path d="M26.462 7.456c0 1.060-0.859 1.919-1.919 1.919s-1.919-0.859-1.919-1.919c0-1.060 0.859-1.919 1.919-1.919s1.919 0.859 1.919 1.919z"></path>
</symbol>
<symbol id="icon-tesla" viewBox="0 0 32 32">
<path fill="" style="fill: var(--color1, )" d="M16 7.149l3.3-4.035c0 0 5.66 0.12 11.295 2.739-1.443 2.181-4.308 3.251-4.308 3.251-0.195-1.919-1.539-2.387-5.805-2.387l-4.481 25.283-4.508-25.288c-4.24 0-5.584 0.472-5.78 2.389 0 0-2.861-1.060-4.305-3.24 5.633-2.62 11.293-2.741 11.293-2.741l3.3 4.029-0.005 0.003h0.005zM16 1.951c4.553-0.040 9.768 0.704 15.104 3.040 0.713-1.291 0.896-1.86 0.896-1.86-5.833-2.315-11.296-3.111-16-3.131-4.704 0.020-10.167 0.813-16 3.132 0 0 0.26 0.7 0.896 1.861 5.336-2.341 10.551-3.080 15.104-3.047z"></path>
</symbol>
<symbol id="icon-key2" viewBox="0 0 32 32">
<path d="M31.317 9.82l-3.16-3.159c-0.775-0.775-2.043-2.043-2.818-2.818l-3.16-3.159c-0.775-0.775-2.155-0.911-3.067-0.304l-8.639 5.759c-0.912 0.608-1.257 1.907-0.767 2.887l2.203 4.405c0.067 0.135 0.145 0.278 0.231 0.427l-11.142 11.142-1 7h6v-2h4v-4h4v-4h4v-2.225c0.2 0.119 0.392 0.226 0.569 0.314l4.405 2.203c0.98 0.49 2.279 0.145 2.887-0.767l5.759-8.639c0.608-0.912 0.471-2.292-0.304-3.066zM4.707 26.707l-1.414-1.414 9.737-9.737 1.414 1.414-9.737 9.737zM28.657 13.243l-1.414 1.414c-0.389 0.389-1.025 0.389-1.414 0l-8.485-8.485c-0.389-0.389-0.389-1.025 0-1.414l1.414-1.414c0.389-0.389 1.025-0.389 1.414 0l8.485 8.485c0.389 0.389 0.389 1.025 0 1.414z"></path>
</symbol>
<symbol  id="navigation" viewBox="0 0 60 60">
	<path d="M44.394,13.091L8.633,29.503c-0.399,0.184-0.632,0.605-0.574,1.041s0.393,0.782,0.826,0.854l15.833,2.653l1.809,14.95
		c0.054,0.438,0.389,0.791,0.824,0.865c0.057,0.01,0.113,0.015,0.169,0.015c0.375,0,0.726-0.211,0.896-0.556l17.291-34.882
		c0.188-0.38,0.117-0.837-0.178-1.141S44.776,12.914,44.394,13.091z M28.11,45.438l-1.496-12.369
		c-0.054-0.44-0.391-0.793-0.828-0.866l-13.362-2.239L42.66,16.087L28.11,45.438z"/>
	<path d="M30,0C13.458,0,0,13.458,0,30s13.458,30,30,30s30-13.458,30-30S46.542,0,30,0z M30,58C14.561,58,2,45.439,2,30
		S14.561,2,30,2s28,12.561,28,28S45.439,58,30,58z"/>
</symbol>
<symbol id="acum" viewBox="0 0 24 24">
<path d="M22,8a2,2,0,0,0-2-2H18.5V4.8a1.37,1.37,0,0,0-.05-.53.58.58,0,0,0-.22-.22,1.37,1.37,0,0,0-.53,0H15.3a1.37,1.37,0,0,0-.53,0,.58.58,0,0,0-.22.22,1.37,1.37,0,0,0-.05.53V6h-5V4.8a1.37,1.37,0,0,0-.05-.53.58.58,0,0,0-.22-.22A1.37,1.37,0,0,0,8.7,4H6.3a1.37,1.37,0,0,0-.53,0,.58.58,0,0,0-.22.22,1.37,1.37,0,0,0,0,.53V6H4A2,2,0,0,0,2,8V18a2,2,0,0,0,2,2H20a2,2,0,0,0,2-2ZM6.75,16.5l-2-2.5H6V10h8v1.5H7.5V14H8.75ZM18,12v4H10V14.5h6.5V12H15.25l2-2.5,2,2.5Z" fill-rule="evenodd"/>
</symbol>
<symbol id="retrofit" viewBox="0 0 24 24">
<path d="M14,2.2V1H10V2.2a10,10,0,1,0,4,0ZM12,20a8,8,0,1,1,8-8A8,8,0,0,1,12,20ZM7.75,10.25A1.75,1.75,0,1,0,9.5,12,1.75,1.75,0,0,0,7.75,10.25Zm0,2.5A.75.75,0,1,1,8.5,12,.76.76,0,0,1,7.75,12.75ZM12,14.5a1.75,1.75,0,1,0,1.75,1.75A1.75,1.75,0,0,0,12,14.5ZM12,17a.75.75,0,1,1,.75-.75A.76.76,0,0,1,12,17Zm4.25-6.75A1.75,1.75,0,1,0,18,12,1.75,1.75,0,0,0,16.25,10.25Zm0,2.5A.75.75,0,1,1,17,12,.76.76,0,0,1,16.25,12.75ZM12,9a1.5,1.5,0,1,0-1.5-1.5A1.5,1.5,0,0,0,12,9Zm0-2a.5.5,0,1,1-.5.5A.5.5,0,0,1,12,7Z" fill-rule="evenodd"/>
</symbol>
<symbol id="tegra" viewBox="0 0 24 24">
<path fill-rule="evenodd" clip-rule="evenodd" d="M14 8C15.1046 8 16 8.89543 16 10V14C16 15.1046 15.1046 16 14 16H10C8.89543 16 8 15.1046 8 14V10C8 8.89543 8.89543 8 10 8H14ZM13 10C13.5523 10 14 10.4477 14 11V13C14 13.5523 13.5523 14 13 14H11C10.4477 14 10 13.5523 10 13V11C10 10.4477 10.4477 10 11 10H13Z" fill="#0F0F0F"/>
<path fill-rule="evenodd" clip-rule="evenodd" d="M11 2C11 1.44772 11.4477 1 12 1C12.5523 1 13 1.44772 13 2V4H15V2C15 1.44772 15.4477 1 16 1C16.5523 1 17 1.44772 17 2V4C18.6569 4 20 5.34315 20 7H22C22.5523 7 23 7.44771 23 8C23 8.55229 22.5523 9 22 9H20V11H22C22.5523 11 23 11.4477 23 12C23 12.5523 22.5523 13 22 13H20V15H22C22.5523 15 23 15.4477 23 16C23 16.5523 22.5523 17 22 17H20C20 18.6569 18.6569 20 17 20V22C17 22.5523 16.5523 23 16 23C15.4477 23 15 22.5523 15 22V20H13V22C13 22.5523 12.5523 23 12 23C11.4477 23 11 22.5523 11 22V20H9V22C9 22.5523 8.55229 23 8 23C7.44771 23 7 22.5523 7 22V20C5.34315 20 4 18.6569 4 17H2C1.44772 17 1 16.5523 1 16C1 15.4477 1.44772 15 2 15H4V13H2C1.44772 13 1 12.5523 1 12C1 11.4477 1.44772 11 2 11H4V9H2C1.44772 9 1 8.55229 1 8C1 7.44771 1.44772 7 2 7H4C4 5.34315 5.34315 4 7 4V2C7 1.44772 7.44771 1 8 1C8.55229 1 9 1.44772 9 2V4H11V2ZM17 6C17.5523 6 18 6.44772 18 7V17C18 17.5523 17.5523 18 17 18H7C6.44771 18 6 17.5523 6 17V7C6 6.44771 6.44772 6 7 6H17Z" fill="#0F0F0F"/>
</symbol>
<symbol id="radio" viewBox="0 0 24 24">
<path d="M19 4H9C8.07003 4 7.60504 4 7.22354 4.10222C6.18827 4.37962 5.37962 5.18827 5.10222 6.22354C5 6.60504 5 7.08922 5 8.01919M5 8.01919C5.31428 8 5.70173 8 6.2 8H17.8C18.9201 8 19.4802 8 19.908 8.21799C20.2843 8.40973 20.5903 8.71569 20.782 9.09202C21 9.51984 21 10.0799 21 11.2V16.8C21 17.9201 21 18.4802 20.782 18.908C20.5903 19.2843 20.2843 19.5903 19.908 19.782C19.4802 20 18.9201 20 17.8 20H6.2C5.07989 20 4.51984 20 4.09202 19.782C3.71569 19.5903 3.40973 19.2843 3.21799 18.908C3 18.4802 3 17.9201 3 16.8V11.2C3 10.0799 3 9.51984 3.21799 9.09202C3.40973 8.71569 3.71569 8.40973 4.09202 8.21799C4.32953 8.09697 4.60779 8.04314 5 8.01919ZM14 12H18M14 16H18M10 14C10 15.1046 9.10457 16 8 16C6.89543 16 6 15.1046 6 14C6 12.8954 6.89543 12 8 12C9.10457 12 10 12.8954 10 14Z" stroke="#000000" stroke-width="2" stroke-linecap="round" stroke-linejoin="round"/>
</symbol>
<symbol id="icon-telegram" viewBox="0 0 32 32">
<path d="M16 0c-8.838 0-16 7.162-16 16s7.162 16 16 16 16-7.163 16-16-7.163-16-16-16zM23.863 10.969l-2.625 12.369c-0.181 0.881-0.712 1.087-1.45 0.681l-4-2.956-1.919 1.869c-0.225 0.219-0.4 0.4-0.8 0.4-0.519 0-0.431-0.194-0.606-0.688l-1.363-4.475-3.956-1.231c-0.856-0.262-0.862-0.85 0.194-1.269l15.412-5.95c0.7-0.319 1.381 0.169 1.113 1.25z"></path>
</symbol>
<symbol id="icon-viber" viewBox="0 0 24 24">
<path d="M13 4C12.4477 4 12 4.44772 12 5C12 5.55228 12.4477 6 13 6C14.2728 6 15.2557 6.41989 15.9179 7.08211C16.5801 7.74433 17 8.72725 17 10C17 10.5523 17.4477 11 18 11C18.5523 11 19 10.5523 19 10C19 8.27275 18.4199 6.75567 17.3321 5.66789C16.2443 4.58011 14.7272 4 13 4Z" fill=""/>
<path d="M5.014 8.00613C5.12827 7.1024 6.30277 5.87414 7.23488 6.01043L7.23339 6.00894C8.01251 6.15699 8.65217 7.32965 9.07373 8.10246C9.14298 8.22942 9.20635 8.34559 9.26349 8.44465C9.55041 8.95402 9.3641 9.4701 9.09655 9.68787C9.06561 9.7128 9.03317 9.73855 8.9998 9.76504C8.64376 10.0477 8.18114 10.4149 8.28943 10.7834C8.5 11.5 11 14 12.2296 14.7107C12.6061 14.9283 12.8988 14.5057 13.1495 14.1438C13.2087 14.0583 13.2656 13.9762 13.3207 13.9067C13.5301 13.6271 14.0466 13.46 14.5548 13.736C15.3138 14.178 16.0288 14.6917 16.69 15.27C17.0202 15.546 17.0977 15.9539 16.8689 16.385C16.4659 17.1443 15.3003 18.1456 14.4542 17.9421C12.9764 17.5868 7 15.27 5.08033 8.55801C4.97981 8.26236 4.99645 8.13792 5.01088 8.02991L5.014 8.00613Z" fill=""/>
<path d="M13 7C12.4477 7 12 7.44772 12 8C12 8.55228 12.4477 9 13 9C13.1748 9 13.4332 9.09745 13.6679 9.33211C13.9025 9.56676 14 9.82523 14 10C14 10.5523 14.4477 11 15 11C15.5523 11 16 10.5523 16 10C16 9.17477 15.5975 8.43324 15.0821 7.91789C14.5668 7.40255 13.8252 7 13 7Z" fill=""/>
<path fill-rule="evenodd" clip-rule="evenodd" d="M7.51742 23.8312C7.54587 23.8469 7.57508 23.8612 7.60492 23.874C8.14762 24.1074 8.81755 23.5863 10.1574 22.5442L11.5 21.5C14.1884 21.589 16.514 21.2362 18.312 20.6071C20.3227 19.9035 21.9036 18.3226 22.6072 16.3119C23.5768 13.541 23.5768 8.45883 22.6072 5.68794C21.9036 3.67722 20.3227 2.0963 18.312 1.39271C15.1103 0.272407 8.82999 0.293306 5.68806 1.39271C3.67733 2.0963 2.09642 3.67722 1.39283 5.68794C0.423255 8.45883 0.423255 13.541 1.39283 16.3119C2.09642 18.3226 3.67733 19.9035 5.68806 20.6071C6.08252 20.7451 6.52371 20.8965 7 21C7 22.6974 7 23.5461 7.51742 23.8312ZM9 20.9107V19.7909C9 19.5557 8.836 19.3524 8.60597 19.3032C7.84407 19.1403 7.08676 18.9776 6.34862 18.7193C4.91238 18.2168 3.78316 17.0875 3.2806 15.6513C2.89871 14.5599 2.66565 12.8453 2.66565 10.9999C2.66565 9.15453 2.89871 7.43987 3.2806 6.3485C3.78316 4.91227 4.91238 3.78304 6.34862 3.28048C7.61625 2.83692 9.71713 2.56282 11.9798 2.56032C14.2422 2.55782 16.3561 2.82723 17.6514 3.28048C19.0876 3.78304 20.2169 4.91227 20.7194 6.3485C21.1013 7.43987 21.3344 9.15453 21.3344 10.9999C21.3344 12.8453 21.1013 14.5599 20.7194 15.6513C20.2169 17.0875 19.0876 18.2168 17.6514 18.7193C15.5197 19.4652 13.259 19.549 11.0239 19.4828C10.9071 19.4794 10.7926 19.5165 10.7004 19.5882L9 20.9107Z" fill=""/>
</symbol>
</defs>
</svg>

<svg aria-hidden="true" style="position:absolute;width:0;height:0;overflow:hidden" xmlns="http://www.w3.org/2000/svg"><defs><symbol id="icon-facebook-square" viewBox="0 0 24 28"><path d="M19.5 2C21.984 2 24 4.016 24 6.5v15c0 2.484-2.016 4.5-4.5 4.5h-2.938v-9.297h3.109l.469-3.625h-3.578v-2.312c0-1.047.281-1.75 1.797-1.75L20.265 9V5.766c-.328-.047-1.469-.141-2.781-.141-2.766 0-4.672 1.687-4.672 4.781v2.672H9.687v3.625h3.125V26H4.499a4.502 4.502 0 0 1-4.5-4.5v-15c0-2.484 2.016-4.5 4.5-4.5h15z"/></symbol><symbol id="icon-instagram" viewBox="0 0 32 32"><path d="M16 2.881c4.275 0 4.781.019 6.462.094 1.563.069 2.406.331 2.969.55a4.952 4.952 0 0 1 1.837 1.194 5.015 5.015 0 0 1 1.2 1.838c.219.563.481 1.412.55 2.969.075 1.688.094 2.194.094 6.463s-.019 4.781-.094 6.463c-.069 1.563-.331 2.406-.55 2.969a4.94 4.94 0 0 1-1.194 1.837 5.02 5.02 0 0 1-1.837 1.2c-.563.219-1.413.481-2.969.55-1.688.075-2.194.094-6.463.094s-4.781-.019-6.463-.094c-1.563-.069-2.406-.331-2.969-.55a4.952 4.952 0 0 1-1.838-1.194 5.02 5.02 0 0 1-1.2-1.837c-.219-.563-.481-1.413-.55-2.969-.075-1.688-.094-2.194-.094-6.463s.019-4.781.094-6.463c.069-1.563.331-2.406.55-2.969a4.964 4.964 0 0 1 1.194-1.838 5.015 5.015 0 0 1 1.838-1.2c.563-.219 1.412-.481 2.969-.55 1.681-.075 2.188-.094 6.463-.094zM16 0c-4.344 0-4.887.019-6.594.094-1.7.075-2.869.35-3.881.744-1.056.412-1.95.956-2.837 1.85a7.833 7.833 0 0 0-1.85 2.831C.444 6.538.169 7.7.094 9.4.019 11.113 0 11.656 0 16s.019 4.887.094 6.594c.075 1.7.35 2.869.744 3.881.413 1.056.956 1.95 1.85 2.837a7.82 7.82 0 0 0 2.831 1.844c1.019.394 2.181.669 3.881.744 1.706.075 2.25.094 6.594.094s4.888-.019 6.594-.094c1.7-.075 2.869-.35 3.881-.744 1.05-.406 1.944-.956 2.831-1.844s1.438-1.781 1.844-2.831c.394-1.019.669-2.181.744-3.881.075-1.706.094-2.25.094-6.594s-.019-4.887-.094-6.594c-.075-1.7-.35-2.869-.744-3.881a7.506 7.506 0 0 0-1.831-2.844A7.82 7.82 0 0 0 26.482.843C25.463.449 24.301.174 22.601.099c-1.712-.081-2.256-.1-6.6-.1z"/><path d="M16 7.781c-4.537 0-8.219 3.681-8.219 8.219s3.681 8.219 8.219 8.219 8.219-3.681 8.219-8.219A8.221 8.221 0 0 0 16 7.781zm0 13.55a5.331 5.331 0 1 1 0-10.663 5.331 5.331 0 0 1 0 10.663zM26.462 7.456a1.919 1.919 0 1 1-3.838 0 1.919 1.919 0 0 1 3.838 0z"/></symbol><symbol id="icon-tesla" viewBox="0 0 32 32"><path style="fill:var(--color1, )" d="m16 7.149 3.3-4.035s5.66.12 11.295 2.739c-1.443 2.181-4.308 3.251-4.308 3.251-.195-1.919-1.539-2.387-5.805-2.387L16.001 32 11.493 6.712c-4.24 0-5.584.472-5.78 2.389 0 0-2.861-1.06-4.305-3.24C7.041 3.241 12.701 3.12 12.701 3.12l3.3 4.029-.005.003h.005zm0-5.198c4.553-.04 9.768.704 15.104 3.04.713-1.291.896-1.86.896-1.86C26.167.816 20.704.02 16 0 11.296.02 5.833.813 0 3.132c0 0 .26.7.896 1.861C6.232 2.652 11.447 1.913 16 1.946z"/></symbol><symbol id="icon-key2" viewBox="0 0 32 32"><path d="m31.317 9.82-3.16-3.159-2.818-2.818-3.16-3.159c-.775-.775-2.155-.911-3.067-.304l-8.639 5.759c-.912.608-1.257 1.907-.767 2.887l2.203 4.405c.067.135.145.278.231.427L.998 25l-1 7h6v-2h4v-4h4v-4h4v-2.225c.2.119.392.226.569.314l4.405 2.203c.98.49 2.279.145 2.887-.767l5.759-8.639c.608-.912.471-2.292-.304-3.066zM4.707 26.707l-1.414-1.414 9.737-9.737 1.414 1.414-9.737 9.737zm23.95-13.464-1.414 1.414a1.003 1.003 0 0 1-1.414 0l-8.485-8.485a1.003 1.003 0 0 1 0-1.414l1.414-1.414a1.003 1.003 0 0 1 1.414 0l8.485 8.485a1.003 1.003 0 0 1 0 1.414z"/></symbol><symbol id="navigation" viewBox="0 0 60 60"><path d="M44.394 13.091 8.633 29.503a1 1 0 0 0 .252 1.895l15.833 2.653 1.809 14.95a1.002 1.002 0 0 0 1.889.324l17.291-34.882a1 1 0 0 0-1.313-1.352zM28.11 45.438l-1.496-12.369a1.002 1.002 0 0 0-.828-.866l-13.362-2.239L42.66 16.087 28.11 45.438z"/><path d="M30 0C13.458 0 0 13.458 0 30s13.458 30 30 30 30-13.458 30-30S46.542 0 30 0zm0 58C14.561 58 2 45.439 2 30S14.561 2 30 2s28 12.561 28 28-12.561 28-28 28z"/></symbol><symbol id="acum" viewBox="0 0 24 24"><path d="M22 8a2 2 0 0 0-2-2h-1.5V4.8a1.37 1.37 0 0 0-.05-.53.58.58 0 0 0-.22-.22 1.37 1.37 0 0 0-.53 0h-2.4a1.37 1.37 0 0 0-.53 0 .58.58 0 0 0-.22.22 1.37 1.37 0 0 0-.05.53V6h-5V4.8a1.37 1.37 0 0 0-.05-.53.58.58 0 0 0-.22-.22A1.37 1.37 0 0 0 8.7 4H6.3a1.37 1.37 0 0 0-.53 0 .58.58 0 0 0-.22.22 1.37 1.37 0 0 0 0 .53V6H4a2 2 0 0 0-2 2v10a2 2 0 0 0 2 2h16a2 2 0 0 0 2-2ZM6.75 16.5l-2-2.5H6v-4h8v1.5H7.5V14h1.25ZM18 12v4h-8v-1.5h6.5V12h-1.25l2-2.5 2 2.5Z" fill-rule="evenodd"/></symbol><symbol id="retrofit" viewBox="0 0 24 24"><path d="M14 2.2V1h-4v1.2a10 10 0 1 0 4 0ZM12 20a8 8 0 1 1 8-8 8 8 0 0 1-8 8Zm-4.25-9.75A1.75 1.75 0 1 0 9.5 12a1.75 1.75 0 0 0-1.75-1.75Zm0 2.5A.75.75 0 1 1 8.5 12a.76.76 0 0 1-.75.75ZM12 14.5a1.75 1.75 0 1 0 1.75 1.75A1.75 1.75 0 0 0 12 14.5Zm0 2.5a.75.75 0 1 1 .75-.75.76.76 0 0 1-.75.75Zm4.25-6.75A1.75 1.75 0 1 0 18 12a1.75 1.75 0 0 0-1.75-1.75Zm0 2.5A.75.75 0 1 1 17 12a.76.76 0 0 1-.75.75ZM12 9a1.5 1.5 0 1 0-1.5-1.5A1.5 1.5 0 0 0 12 9Zm0-2a.5.5 0 1 1-.5.5.5.5 0 0 1 .5-.5Z" fill-rule="evenodd"/></symbol><symbol id="tegra" viewBox="0 0 24 24"><path fill-rule="evenodd" clip-rule="evenodd" d="M14 8a2 2 0 0 1 2 2v4a2 2 0 0 1-2 2h-4a2 2 0 0 1-2-2v-4a2 2 0 0 1 2-2h4Zm-1 2a1 1 0 0 1 1 1v2a1 1 0 0 1-1 1h-2a1 1 0 0 1-1-1v-2a1 1 0 0 1 1-1h2Z" fill="#0F0F0F"/><path fill-rule="evenodd" clip-rule="evenodd" d="M11 2a1 1 0 1 1 2 0v2h2V2a1 1 0 1 1 2 0v2a3 3 0 0 1 3 3h2a1 1 0 1 1 0 2h-2v2h2a1 1 0 1 1 0 2h-2v2h2a1 1 0 1 1 0 2h-2a3 3 0 0 1-3 3v2a1 1 0 1 1-2 0v-2h-2v2a1 1 0 1 1-2 0v-2H9v2a1 1 0 1 1-2 0v-2a3 3 0 0 1-3-3H2a1 1 0 1 1 0-2h2v-2H2a1 1 0 1 1 0-2h2V9H2a1 1 0 1 1 0-2h2a3 3 0 0 1 3-3V2a1 1 0 1 1 2 0v2h2V2Zm6 4a1 1 0 0 1 1 1v10a1 1 0 0 1-1 1H7a1 1 0 0 1-1-1V7a1 1 0 0 1 1-1h10Z" fill="#0F0F0F"/></symbol><symbol id="radio" viewBox="0 0 24 24"><path d="M19 4H9c-.93 0-1.395 0-1.776.102a3 3 0 0 0-2.122 2.122C5 6.605 5 7.089 5 8.019m0 0C5.314 8 5.702 8 6.2 8h11.6c1.12 0 1.68 0 2.108.218a2 2 0 0 1 .874.874C21 9.52 21 10.08 21 11.2v5.6c0 1.12 0 1.68-.218 2.108a2 2 0 0 1-.874.874C19.48 20 18.92 20 17.8 20H6.2c-1.12 0-1.68 0-2.108-.218a2 2 0 0 1-.874-.874C3 18.48 3 17.92 3 16.8v-5.6c0-1.12 0-1.68.218-2.108a2 2 0 0 1 .874-.874c.238-.121.516-.175.908-.199ZM14 12h4m-4 4h4m-8-2a2 2 0 1 1-4 0 2 2 0 0 1 4 0Z" stroke="#000" stroke-width="2" stroke-linecap="round" stroke-linejoin="round"/></symbol><symbol id="icon-telegram" viewBox="0 0 32 32"><path d="M16 0C7.162 0 0 7.162 0 16s7.162 16 16 16 16-7.163 16-16S24.837 0 16 0zm7.863 10.969-2.625 12.369c-.181.881-.712 1.087-1.45.681l-4-2.956-1.919 1.869c-.225.219-.4.4-.8.4-.519 0-.431-.194-.606-.688L11.1 18.169l-3.956-1.231c-.856-.262-.862-.85.194-1.269l15.412-5.95c.7-.319 1.381.169 1.113 1.25z"/></symbol><symbol id="icon-viber" viewBox="0 0 24 24"><path d="M13 4a1 1 0 1 0 0 2c1.273 0 2.256.42 2.918 1.082C16.58 7.744 17 8.727 17 10a1 1 0 1 0 2 0c0-1.727-.58-3.244-1.668-4.332C16.244 4.58 14.727 4 13 4ZM5.014 8.006c.114-.904 1.289-2.132 2.22-1.996V6.01c.779.148 1.418 1.32 1.84 2.093.069.127.132.244.19.343.286.509.1 1.025-.167 1.243L9 9.765c-.356.283-.819.65-.71 1.018C8.5 11.5 11 14 12.23 14.711c.376.217.669-.205.92-.567.059-.086.116-.168.17-.237.21-.28.727-.447 1.235-.171.759.442 1.474.956 2.135 1.534.33.276.408.684.179 1.115-.403.76-1.569 1.76-2.415 1.557C12.976 17.587 7 15.27 5.08 8.558c-.1-.296-.084-.42-.07-.528l.004-.024Z"/><path d="M13 7a1 1 0 1 0 0 2c.175 0 .433.097.668.332.235.235.332.493.332.668a1 1 0 1 0 2 0c0-.825-.402-1.567-.918-2.082C14.567 7.403 13.825 7 13 7Z"/><path fill-rule="evenodd" clip-rule="evenodd" d="M7.517 23.831c.029.016.058.03.088.043.543.233 1.213-.288 2.552-1.33L11.5 21.5c2.688.089 5.014-.264 6.812-.893a7 7 0 0 0 4.295-4.295c.97-2.771.97-7.853 0-10.624a7 7 0 0 0-4.295-4.295c-3.202-1.12-9.482-1.1-12.624 0a7 7 0 0 0-4.295 4.295c-.97 2.77-.97 7.853 0 10.624a7 7 0 0 0 4.295 4.295c.395.138.836.29 1.312.393 0 1.697 0 2.546.517 2.831ZM9 20.911v-1.12a.498.498 0 0 0-.394-.488c-.762-.163-1.52-.325-2.257-.584a5 5 0 0 1-3.068-3.068c-.382-1.091-.615-2.806-.615-4.651 0-1.845.233-3.56.615-4.652A5 5 0 0 1 6.349 3.28c1.267-.443 3.368-.717 5.63-.72 2.263-.002 4.377.267 5.672.72a5 5 0 0 1 3.068 3.068c.382 1.092.615 2.807.615 4.652 0 1.845-.233 3.56-.615 4.651a5 5 0 0 1-3.068 3.068c-2.131.746-4.392.83-6.627.764a.503.503 0 0 0-.324.105L9 20.911Z"/></symbol></defs></svg>
